icons/desktop/16/svg/warning-fill-16.svg

<svg width="16" height="16" viewBox="0 0 16 16" fill="none" xmlns="http://www.w3.org/2000/svg">
<path fill-rule="evenodd" clip-rule="evenodd" d="M7.97452 1C8.99933 1.00019 10.0247 1.51419 10.5966 2.54199L14.9833 10.4297C16.0571 12.3616 14.7438 14.7706 12.537 14.8838C10.9573 14.9648 9.44727 15 8.01651 15C6.45263 15 4.94576 14.9578 3.50186 14.8838C1.28419 14.7695 -0.0541816 12.3872 1.01456 10.4414L5.34464 2.55566C5.9147 1.51903 6.9447 1 7.97452 1ZM7.99991 10.25C7.51669 10.25 7.12491 10.6418 7.12491 11.125C7.12491 11.6082 7.51669 12 7.99991 12C8.48316 12 8.87491 11.6082 8.87491 11.125C8.87491 10.6418 8.48316 10.25 7.99991 10.25ZM7.99991 5C7.58594 5.00003 7.24991 5.33602 7.24991 5.75V8.25C7.24991 8.66398 7.58594 8.99997 7.99991 9C8.41391 9 8.74991 8.664 8.74991 8.25V5.75C8.74991 5.336 8.41391 5 7.99991 5Z" fill="black"/>
</svg>

<!-- This Source Code Form is subject to the terms of the Mozilla Public
   - License, v. 2.0. If a copy of the MPL was not distributed with this
   - file, You can obtain one at http://mozilla.org/MPL/2.0/. -->
<svg xmlns="http://www.w3.org/2000/svg" width="16" height="16" fill="context-fill" fill-opacity="context-fill-opacity" viewBox="0 0 16 16">
    <path fill-rule="evenodd" d="M7.975 1c1.024 0 2.05.514 2.622 1.542l4.386 7.888c1.074 1.932-.24 4.34-2.446 4.454a88 88 0 0 1-9.035 0c-2.218-.114-3.556-2.497-2.487-4.443l4.33-7.885A2.97 2.97 0 0 1 7.975 1M8 10.25A.875.875 0 1 0 8 12a.875.875 0 0 0 0-1.75M8 5a.75.75 0 0 0-.75.75v2.5a.75.75 0 0 0 1.5 0v-2.5A.75.75 0 0 0 8 5" clip-rule="evenodd" />
</svg>
